data/luts/cool_teal.cube
TITLE "Cool Teal"
LUT_3D_SIZE 2
0.0 0.0 0.05
0.0 0.0 1.0
0.0 0.05 0.05
0.0 0.05 1.0
0.92 0.95 1.0
0.92 0.98 1.0
1.0 0.98 1.0
1.0 1.0 1.0
