data/luts/vintage_warm.cube
TITLE "Vintage Warm"
LUT_3D_SIZE 2
0.0 0.0 0.0
0.05 0.0 0.0
0.0 0.02 0.0
0.05 0.02 0.0
0.95 0.92 0.88
1.0 0.95 0.90
0.95 1.0 0.92
1.0 1.0 0.95
